X:1
T:Beati Immaculati, CM
T:Beati Immaculati, CM
T:Alexander Robert Reinagle, ca. 1836
T:Public Domain Courtesy of the Cyber Hymnal™
C:Alexander Robert Reinagle, ca. 1836
Z:Public Domain
Z:Courtesy of the Cyber Hymnal™
%%score ( 1 2 ) ( 3 4 )
L:1/8
Q:1/4=110
M:4/4
K:G
V:1 treble 
V:2 treble 
V:3 bass 
V:4 bass 
V:1
 [CD]2 | [B,D]2 [EG]2 [GB]2 [FA]2 | G2 [Ge]2 [Gd]2 [Fc]2 | [GB]2 [FA]2 G2 [DB]2 | [DA]6 [B,D]2 | %5
 D2 [EG]2 [FB]2 [^DA]2 | [EG]2 [Ge]2 [Gd]2 [^Gd]2 | [Ac]2 [EA]2 E2 [DF]2 | [DG]6 |] %9
V:2
 x2 | x8 | G2 x6 | x8 | x8 | ^D2 x6 | x8 | x4 E2 x2 | x6 |] %9
V:3
 [F,A,]2 | G,2 [E,B,]2 [D,D]2 [D,C]2 | [G,B,]2 C2 [B,D]2 [A,D]2 | [G,D]2 [D,D]2 [B,,D]2 [G,,G,]2 | %4
 [D,F,]6 G,2 | [F,A,]2 [E,B,]2 [^D,B,]2 [B,,B,]2 | [E,B,]2 [C,C]2 [B,,D]2 [E,E]2 | %7
 [A,,E]2 [C,C]2 [A,C]2 (DC) | [G,B,]6 |] %9
V:4
 x2 | G,2 x6 | x8 | x8 | x6 G,2 | x8 | x8 | x6 D,2 | x6 |] %9

